X:125
T: Kitchen Girl Harmony
R: reel
M: 4/4
L: 1/8
K: A mix
|:"A"Lc2z2 "G"LB2z2|"A"A2A2E2EF|A2A2BAGA|"G"B2d2c2B2|
"A"Lc2z2 "G"LB2z2|"A"A2A2E2EF|"A"A2B2 "G"d2B2|"A"A2E2E4 :|
K:Ador
|:"Am"cde2 "Em"dedB|"Am"cdc2A2A2|c2d2e2f2|"Em"g4g2a2 |
"Am"cde2 "Em"dedB|"Am"cdc2A2A2|1"Am"e2ce "Em"e2Bd|"Am"[e4A4][e4A4]:|2"Am".e2z2 "Em".d2z2|"Am"[e8A8]|]
